src/cmd/sc_hiderow.svg

<svg viewBox="0 0 16 16" xmlns="http://www.w3.org/2000/svg"><path d="m2 2v1 2 6 .878906l1-.998047v-5.880859-2h3v2h1v-2h2v1.8925781l1-.9980469v-.8945312h.894531l1.001953-1zm12 2.1113281-1 1.0019531v5.8867188 2h-3v-2h-1v2h-2v-1.876953l-1 1v.876953h-.875l-.9980469 1h9.8730469v-1-2-6z" fill="#232629"/><path d="m3 5v1.71875l2.0839844 2.0839844.71875-.71875-2.0839844-2.0839844h2.5625l.8027344.8027344.7207031-.7167969-.0859375-.0859375h.171875l1.0019531-1zm10 .1132812-.884766.8867188h.884766zm-1.083984 1.0839844-.716797.7207032 1.800781 1.8007812v-1.4375zm-1.9980472 2.0019532-.71875.71875 1.0820312 1.0820312h-2.1601562l-.9980469 1h.1582031 4 1.71875v-1h-1.28125zm-6.9179688 1.8007812v.880859l.8828125-.880859z" fill="#762572"/><path d="m13.3125 2-11.3144532 11.294922.7148438.705078 11.2851564-11.3027344z" fill="#232629"/></svg>

<?xml version="1.0" encoding="UTF-8" standalone="no"?>
<svg
   xmlns:dc="http://purl.org/dc/elements/1.1/"
   xmlns:cc="http://creativecommons.org/ns#"
   xmlns:rdf="http://www.w3.org/1999/02/22-rdf-syntax-ns#"
   xmlns:svg="http://www.w3.org/2000/svg"
   xmlns="http://www.w3.org/2000/svg"
   xmlns:sodipodi="http://sodipodi.sourceforge.net/DTD/sodipodi-0.dtd"
   xmlns:inkscape="http://www.inkscape.org/namespaces/inkscape"
   viewBox="0 0 16 16"
   version="1.1"
   id="svg8"
   sodipodi:docname="sc_hiderow.svg"
   inkscape:version="0.92.4 (5da689c313, 2019-01-14)">
  <metadata
     id="metadata14">
    <rdf:RDF>
      <cc:Work
         rdf:about="">
        <dc:format>image/svg+xml</dc:format>
        <dc:type
           rdf:resource="http://purl.org/dc/dcmitype/StillImage" />
      </cc:Work>
    </rdf:RDF>
  </metadata>
  <defs
     id="defs12" />
  <sodipodi:namedview
     pagecolor="#ffffff"
     bordercolor="#666666"
     borderopacity="1"
     objecttolerance="10"
     gridtolerance="10"
     guidetolerance="10"
     inkscape:pageopacity="0"
     inkscape:pageshadow="2"
     inkscape:window-width="1920"
     inkscape:window-height="1011"
     id="namedview10"
     showgrid="true"
     inkscape:zoom="20.85965"
     inkscape:cx="17.315959"
     inkscape:cy="11.143865"
     inkscape:window-x="1920"
     inkscape:window-y="32"
     inkscape:window-maximized="1"
     inkscape:current-layer="svg8">
    <inkscape:grid
       type="xygrid"
       id="grid821" />
  </sodipodi:namedview>
  <path
     d="M 5,2 C 3,2 2,2 2,4 v 1 6 0.878906 L 3,10.880859 V 5 4 C 3,3 4,3 5,3 H 6 V 5 H 7 V 3 H 9 V 4.8925781 L 10,3.8945312 V 3 h 0.894531 l 1.001953,-1 z m 9,2.1113281 -1,1.0019531 V 11 12 c 0,1 -1,1 -2,1 H 10 V 11 H 9 v 2 H 7 v -1.876953 l -1,1 V 13 H 5.125 L 4.1269531,14 H 11 c 2,0 3,0 3,-2 V 11 5 Z"
     id="path2"
     inkscape:connector-curvature="0"
     style="fill:#232629"
     sodipodi:nodetypes="cccccccccccccccccccccccccccccccccccccccc" />
  <path
     d="m3 5v1.71875l2.0839844 2.0839844.71875-.71875-2.0839844-2.0839844h2.5625l.8027344.8027344.7207031-.7167969-.0859375-.0859375h.171875l1.0019531-1zm10 .1132812-.884766.8867188h.884766zm-1.083984 1.0839844-.716797.7207032 1.800781 1.8007812v-1.4375zm-1.9980472 2.0019532-.71875.71875 1.0820312 1.0820312h-2.1601562l-.9980469 1h.1582031 4 1.71875v-1h-1.28125zm-6.9179688 1.8007812v.880859l.8828125-.880859z"
     fill="#762572"
     id="path4" />
  <path
     d="m13.3125 2-11.3144532 11.294922.7148438.705078 11.2851564-11.3027344z"
     fill="#232629"
     id="path6" />
</svg>
